X:1
T:Newland (Gauntlett), SM
T:Newland (Gauntlett), SM
T:Henry John Gauntlett, 1858
T:Public Domain Courtesy of the Cyber Hymnal™
C:Henry John Gauntlett, 1858
Z:Public Domain
Z:Courtesy of the Cyber Hymnal™
%%score ( 1 2 ) ( 3 4 )
L:1/8
Q:1/4=112
M:4/4
K:F
V:1 treble 
V:2 treble 
V:3 bass 
V:4 bass 
V:1
 [Fc]2 | F2 [FA]2 [FG]2 [EG]2 | [FA]6 [FA]2 | [FB]2 [Fd]2 [Fc]2 [FA]2 | [EG]6 [FA]2 | %5
 [FA]2 [EG]2 F2 F2 | [FB]2 [FA]2 [EG]2 [EG]2 | [Fc]2 (BA) [FA]2 [EG]2 | F6 |] %9
V:2
 x2 | F2 x6 | x8 | x8 | x8 | x4 F2 F2 | x8 | x2 F2 x4 | F6 |] %9
V:3
 [F,A,]2 | [A,C]2 [F,C]2 [C,C]2 [C,C]2 | [F,C]6 [F,C]2 | [D,B,]2 [B,,B,]2 [F,A,]2 [F,C]2 | %4
 [C,C]6 [F,C]2 | C2 [B,C]2 [A,C]2 [A,C]2 | [G,D]2 [G,D]2 [CE]2 [B,C]2 | [A,C]2 [B,D]2 C2 (CB,) | %8
 [F,A,]6 |] %9
V:4
 x2 | x8 | x8 | x8 | x8 | C2 x6 | x8 | x4 C2 C,2 | x6 |] %9

